X: 21
T: C'est vous en qui j'ay esperance
N: Derived from Bus3013-Cest_vous_en_qui_jay_esperance.krn
C: Antoine Busnoys
%%abc-version 2.0
%%abcx-abcm2ps-target-version 5.9.1 (29 Sep 2008)
%%abc-creator hum2abc beta
%%abcx-conversion-date 2019/02/16 20:26:07
%%abc-edited-by Jesse Rodin
%%abc-edited-by Chris Gage 04-02-2015
%%abcx-initial-encoding-date 2015/05/01/
%%humdrum-veritas 293023872
%%humdrum-veritas-data 624179797
%%linebreak <none>
%%barnumbers 0
L: 1/4
M: 3/1
Q: 1/2=120
V: 1 clef=treble
V: 2 clef=treble-8
V: 3 clef=treble-8
K: F
[V:1] z12 | 
[V:2] A6B2c4 | 
[V:3] A4F2G2E4 | 
[V:1] A6B2c4 | 
[V:2] d4f4e4 | 
[V:3] D8A4 | 
[V:1] d8B4 | 
[V:2] d8d4- | 
[V:3] B6G2G4 | 
[V:1] A4A4A4 | 
[V:2] d4c6B2 | 
[V:3] D4F8 | 
[V:1] B4A2c3BAG | 
[V:2] G2d4e2f3e | 
[V:3] G4z4F4 | 
[V:1] B2A3GG4^F2 | 
[V:2] d2c4B2A4 | 
[V:3] G2A2F2G2D4 | 
[V:1] G8z4 | 
[V:2] G8G4 | 
[V:3] _E6DCB,4 | 
[V:1] c4c4c4 | 
[V:2] A4A4A4 | 
[V:3] A,8z4 | 
[V:1] B4G4A4 | 
[V:2] G4E4F4 | 
[V:3] G3AB2c4A2- | 
[V:1] B6A2G4 | 
[V:2] z2G3DF2E4 | 
[V:3] AGB3Ad4^c2 | 
[V:1] F4E2D2E4 | 
[V:2] D2A4B2c2de | 
[V:3] d2c4B2A4 | 
[V:1] D4z4c4 | 
[V:2] f4e2d2e4 | 
[V:3] z2D2A2B2c2de | 
[V:1] d3cB2A4GF | 
[V:2] f8z4 | 
[V:3] f8F2G2 | 
[V:1] E4D6C2 | 
[V:2] c4d3cB2A2- | 
[V:3] A4D6E2 | 
[V:1] C8F4- | 
[V:2] A2GFE4D3E | 
[V:3] F4G4A4- | 
[V:1] F2E2F2G3DF2 | 
[V:2] F2G2A2B3Ad2- | 
[V:3] A2B2c2d4D2 | 
[V:1] E4!fermata!D8 | 
[V:2] d2^c2!fermata!d8 | 
[V:3] A4!fermata!D8 | 
[V:1] z4A4A4 | 
[V:2] z4d4c4 | 
[V:3] z4D4A4 | 
[V:1] =B4c6B2 | 
[V:2] d4A6e2- | 
[V:3] G4F6G2 | 
[V:1] G8z4 | 
[V:2] e2dc=B2c3=Bd2- | 
[V:3] E8F4- | 
[V:1] A4=B4c2d2- | 
[V:2] dc=BAG4A2B2- | 
[V:3] F4G4z2G2 | 
[V:1] dcBAB2c4A2- | 
[V:2] Bcd4e4c2 | 
[V:3] d3cB2A3GA2 | 
[V:1] A2G2A2GFE2F2- | 
[V:2] B4A4z4 | 
[V:3] E4F3GA4 | 
[V:1] F2EDC4z4 | 
[V:2] A6GFE2D2 | 
[V:3] D4A,3B,C2D2- | 
[V:1] z4A6GF | 
[V:2] E4D4A,3B, | 
[V:3] D2^C2D4z4 | 
[V:1] E2D2E4D4 | 
[V:2] C2D4^C2D3E | 
[V:3] z4z4A4- | 
[V:1] z4E4F3E | 
[V:2] F2G4E2D4 | 
[V:3] A2G2B2c2d4- | 
[V:1] F2G4E2D2F2- | 
[V:2] z4c4d4- | 
[V:3] d2e6f4 | 
[V:1] F2EDC2B,2C2D2- | 
[V:2] d2cBA2GFE2F2- | 
[V:3] d4e6A2- | 
[V:1] DEF3GA2G2F2- | 
[V:2] FGA3DF2E2D2- | 
[V:3] ABc3dAd2cd2- | 
[V:1] FEE3DD4^C2 | 
[V:2] DE/F/G3DF2E4 | 
[V:3] dcB3AA4G2 | 
[V:1] D12 ]|:  
[V:2] D12 ||  
[V:3] A12 ||  
[V:1] [K:clef=treble][M:2/1]z8 | 
[V:2] [K:clef=treble-8][M:2/1]d6cd | 
[V:3] [K:clef=bass][M:2/1]D,8 | 
[V:1] z8 | 
[V:2] e2d4cB | 
[V:3] G,4G,4 | 
[V:1] A6GA | 
[V:2] A4d4- | 
[V:3] F,4D,4- | 
[V:1] B2A4GF | 
[V:2] d4c2B2 | 
[V:3] D,2E,2F,2G,2 | 
[V:1] E4z4 | 
[V:2] c4d4 | 
[V:3] A,4F,4 | 
[V:1] A8 | 
[V:2] z4f4 | 
[V:3] D,8 | 
[V:1] =B4c4 | 
[V:2] e4e4 | 
[V:3] z4A,,4 | 
[V:1] d4d4 | 
[V:2] d4d4 | 
[V:3] B,,4G,,3A,, | 
[V:1] B4B4 | 
[V:2] G6D2 | 
[V:3] B,,4B,,4 | 
[V:1] c6BA | 
[V:2] E4F4 | 
[V:3] A,,4A,,4 | 
[V:1] B3cB2AG | 
[V:2] G4G4 | 
[V:3] G,,4z4 | 
[V:1] F8 | 
[V:2] A6B2 | 
[V:3] D,3E,F,2G,2 | 
[V:1] z4F4 | 
[V:2] c2d4c2 | 
[V:3] E,2D,4E,2 | 
[V:1] F4F4 | 
[V:2] A2B2A2d2- | 
[V:3] F,2G,2A,2D,2 | 
[V:1] F4F4 | 
[V:2] d2cBA4 | 
[V:3] F,3G,D,4 | 
[V:1] G6FE | 
[V:2] z4E4 | 
[V:3] _E,4C,4 | 
[V:1] D4D4 | 
[V:2] F4G4 | 
[V:3] B,,4B,,4 | 
[V:1] C8 | 
[V:2] A6GF | 
[V:3] A,,6B,,2 | 
[V:1] z4C4 | 
[V:2] E2F3GA2- | 
[V:3] C,2D,2E,2F,2- | 
[V:1] C4C4 | 
[V:2] AGF2E4 | 
[V:3] F,G,A,4G,2 | 
[V:1] F4F4 | 
[V:2] D4z2A2- | 
[V:3] B,2A,3B,C2- | 
[V:1] E6F2 | 
[V:2] A2B2c2d2 | 
[V:3] CDB,2A,4 | 
[V:1] G4A4- | 
[V:2] e4f4- | 
[V:3] G,4F,4- | 
[V:1] A2B2A2GF |[1 
[V:2] f2edc2B2 | 
[V:3] F,2G,2A,4- | 
[V:1] E4 :|][2 
[V:2] c4 :|]  
[V:3] A,4 :|]  
[V:1] E4D4 | 
[V:2] c4d4- | 
[V:3] A,4B,4 | 
[V:1] E8 | 
[V:2] d4^c4 | 
[V:3] A,8 | 
[V:1] D8 ||  
[V:2] d8 ||  
[V:3] D,8 ||  



